SVG/img-revolution-4.svg

<svg width="103" height="87" viewBox="0 0 103 87" fill="none" xmlns="http://www.w3.org/2000/svg">
<path d="M20.21 27.3896C21.85 25.7496 24.22 25.3096 26.26 26.0396C27.04 26.3196 27.78 26.7696 28.4 27.3896L43.97 42.9596L51.58 35.3496L28.26 12.0396C33.2 7.09957 39.94 5.06957 46.37 5.91957L48.9 3.38957C40.64 -1.89043 29.59 -1.00043 22.28 6.04957H22.27L14.27 14.0396C15 16.0796 14.55 18.4496 12.92 20.0896C11.28 21.7296 8.91 22.1696 6.87 21.4396L0 28.2996L11.99 40.2996L18.85 33.4396C18.12 31.3996 18.57 29.0296 20.2 27.3896H20.21Z" fill="#07E993"/>
<path d="M69.1799 48.5801L57.1899 60.5701L80.5399 83.9201C83.8499 87.2301 89.2199 87.2301 92.5299 83.9201C95.8399 80.6101 95.8399 75.2401 92.5299 71.9301L69.1799 48.5801Z" fill="#07E993"/>
<path d="M101.77 12.2199L95.15 18.8399C91.93 22.0599 86.72 22.0599 83.5 18.8399C80.28 15.6199 80.28 10.4099 83.5 7.18988L90.12 0.569876C84.63 -0.890124 78.53 0.509876 74.22 4.81988C69.98 9.05988 68.55 15.0299 69.9 20.4499L53.51 36.8399L53.29 37.0599L45.68 44.6699L45.46 44.8899L18.42 71.9299C15.11 75.2399 15.11 80.6099 18.42 83.9199C21.73 87.2299 27.1 87.2299 30.41 83.9199L53.76 60.5699L55.47 58.8599L67.46 46.8699L69.17 45.1599L81.88 32.4499C87.3 33.7899 93.27 32.3699 97.51 28.1299C101.82 23.8199 103.23 17.7199 101.76 12.2199H101.77ZM26.82 80.3099C25.5 81.6299 23.35 81.6399 22.02 80.3099C20.7 78.9899 20.69 76.8399 22.02 75.5099C23.35 74.1799 25.49 74.1899 26.82 75.5099C28.15 76.8399 28.15 78.9799 26.82 80.3099Z" fill="#07E993"/>
</svg>

<?xml version="1.0" encoding="UTF-8"?>
<svg id="Layer_2" data-name="Layer 2" xmlns="http://www.w3.org/2000/svg" xmlns:xlink="http://www.w3.org/1999/xlink" viewBox="0 0 102.33 86.4">
  <defs>
    <style>
      .cls-1 {
        fill: url(#linear-gradient);
      }

      .cls-1, .cls-2, .cls-3 {
        stroke-width: 0px;
      }

      .cls-2 {
        fill: url(#linear-gradient-2);
      }

      .cls-3 {
        fill: url(#linear-gradient-3);
      }
    </style>
    <linearGradient id="linear-gradient" x1="25.79" y1="82.12" x2="25.79" y2="1" gradientUnits="userSpaceOnUse">
      <stop offset="0" stop-color="red"/>
      <stop offset="1" stop-color="#464961"/>
    </linearGradient>
    <linearGradient id="linear-gradient-2" x1="76.1" y1="82.12" x2="76.1" y2="1" xlink:href="#linear-gradient"/>
    <linearGradient id="linear-gradient-3" x1="59.13" y1="82.12" x2="59.13" y2="1" xlink:href="#linear-gradient"/>
  </defs>
  <g id="Design">
    <g>
      <path class="cls-1" d="M20.21,27.39c1.64-1.64,4.01-2.08,6.05-1.35.78.28,1.52.73,2.14,1.35l15.57,15.57,7.61-7.61L28.26,12.04c4.94-4.94,11.68-6.97,18.11-6.12l2.53-2.53C40.64-1.89,29.59-1,22.28,6.05h-.01s-8,7.99-8,7.99c.73,2.04.28,4.41-1.35,6.05-1.64,1.64-4.01,2.08-6.05,1.35L0,28.3l11.99,12,6.86-6.86c-.73-2.04-.28-4.41,1.35-6.05Z"/>
      <path class="cls-2" d="M69.18,48.58l-11.99,11.99,23.35,23.35c3.31,3.31,8.68,3.31,11.99,0,3.31-3.31,3.31-8.68,0-11.99l-23.35-23.35Z"/>
      <path class="cls-3" d="M101.77,12.22l-6.62,6.62c-3.22,3.22-8.43,3.22-11.65,0-3.22-3.22-3.22-8.43,0-11.65l6.62-6.62c-5.49-1.46-11.59-.06-15.9,4.25-4.24,4.24-5.67,10.21-4.32,15.63l-16.39,16.39-.22.22-7.61,7.61-.22.22-27.04,27.04c-3.31,3.31-3.31,8.68,0,11.99,3.31,3.31,8.68,3.31,11.99,0l23.35-23.35,1.71-1.71,11.99-11.99,1.71-1.71,12.71-12.71c5.42,1.34,11.39-.08,15.63-4.32,4.31-4.31,5.72-10.41,4.25-15.91ZM26.82,80.31c-1.32,1.32-3.47,1.33-4.8,0-1.32-1.32-1.33-3.47,0-4.8,1.33-1.33,3.47-1.32,4.8,0,1.33,1.33,1.33,3.47,0,4.8Z"/>
    </g>
  </g>
</svg>
